X:413
T:Hurra For the Bonnets of Blue. EHo.413
A:England; East Yorkshire
M:6/8
L:1/8
Q:3/8=100
B:Edward Holmes MS, c1846, Beverley, Yorkshire.
C:
O:
Z:Village Music Project 2018, Jake Wade. Beverley, East Yorks
K:A
yE | A>BA c>de | E>FE EFG | A2f ecA | B3-B2 (c/B/) |
A>BA c>de | E>FE E2f | e>dc "tr"BAB | A3A2 :|
A | G>AB BcB | E3-E2A | G>AB BcB | e3-e2d |
ccB AAG | FFG A2e | fcB A>BG | F3-F2G ||
A>BA (c<e)c | A3-A2E | A2f ecA | B3-B2B |
ccB A>Bc | d>ef !fermata!e2a/f/ | e>dc BAB | A3-A2 |]

